X:1
T:Title
%%score 1 { 2 | ( 3 4 ) }
L:1/8
Q:1/4=87
M:3/4
K:Eb
V:1 treble nm="Grand Piano, Soprano"
V:2 bass nm="Choir Pad, Bass"
V:3 bass 
V:4 bass 
V:1
 GF E B,3 | CE C D3 | AG F B3 | FE F G3 | GF E B,3 | EF E E3 | EE F G3- | G/B,/F- F/B,/ E3 | %8
w: By~Mrs.~W.~H.~Pike * * *||||||||
 [GB][FB] [EB] [B,B]3 | [B,E][B,D] [B,E] [DF]3 | [AB][GB] [FB] [FB]3 | [DF]E [DF] [EG]3 | %12
w: ||||
 [GB][FB] [EB] [B,B]3 | [_DE][DF] [DE] [CE]3 | [CE][CE] [EF] [EG]3- | %15
w: |||
 [EG]/B,/[DF]- [DF]/B,/ [B,E]3- | [B,E]4 z2 |] %17
w: ||
V:2
 B,A, G, G,3 | z G, G, A,3 | z2 z D3 | z G, A, B,3 | z2 z[K:treble] G,3 | z _D D C3 | %6
 z C[K:bass] =B, _B,3 | z A,- A,/A,/ G,3 | B,A, G, G,3 | B,B, G, B,3 | DD D D3 | %11
 B,[K:bass]B, B, B,3 | B,A, G, G,3 | G,G, G, A,3 | A,A, =B, _B,3- | B,/G,/A,- A,/A,/ G,3- | %16
 G,4 z2 |] %17
V:3
 z2 z E,, .B,,2 | G, E,2 B,, .F,2 | CB, A,B,, F,B, | A, E,2 E, B,,E,, | B,A, G,E,, .B,,2 | %5
 _D E,2 A, .E,2 | C A,,2 E,, .B,,2 | z/ B,/ B,,2 E, B,,E,, | E,E, E, E,3 | G,F, E, B,,3 | %10
 B,,B,, B,, B,,3 | A,G, F, E,3 | E,E, E, E,3 | E,E, B,, A,,3 | A,,A,, A,, B,,3- | %15
 B,,/B,,/B,,- B,,/B,,/ E,3- | E,4 z2 |] %17
V:4
 z2 z2 z E,- | E, z z2 z F,- | F, z z2 z2 | x6 | z2 z2 z E,- | E, z z2 z A,,- | A,, z z2 z E,- | %7
 E, z z2 z2 | x6 | x6 | x6 | x6 | x6 | x6 | x6 | x6 | x6 |] %17

